styles/3/Numix/64/places/custom-folder-music.svg

<?xml version="1.0" encoding="UTF-8" standalone="no"?>
<!-- Created with Inkscape (http://www.inkscape.org/) -->

<svg
   xmlns:dc="http://purl.org/dc/elements/1.1/"
   xmlns:cc="http://creativecommons.org/ns#"
   xmlns:rdf="http://www.w3.org/1999/02/22-rdf-syntax-ns#"
   xmlns:svg="http://www.w3.org/2000/svg"
   xmlns="http://www.w3.org/2000/svg"
   xmlns:sodipodi="http://sodipodi.sourceforge.net/DTD/sodipodi-0.dtd"
   xmlns:inkscape="http://www.inkscape.org/namespaces/inkscape"
   width="64"
   height="64"
   id="svg2"
   version="1.1"
   inkscape:version="0.91 r"
   sodipodi:docname="custom-folder-music.svg"
   inkscape:export-filename="/media/Data/Main/Visuals/Icons/Numix/Desktop/repos/numix-wiki/Gjorgi/Numix-folders/48/New/folder-144.png"
   inkscape:export-xdpi="270"
   inkscape:export-ydpi="270">
  <defs
     id="defs4" />
  <sodipodi:namedview
     id="base"
     pagecolor="#ffffff"
     bordercolor="#666666"
     borderopacity="1.0"
     inkscape:pageopacity="0.0"
     inkscape:pageshadow="2"
     inkscape:zoom="7.4607353"
     inkscape:cx="-6.0134067"
     inkscape:cy="12.862223"
     inkscape:document-units="px"
     inkscape:current-layer="layer1"
     showgrid="true"
     inkscape:window-width="1280"
     inkscape:window-height="998"
     inkscape:window-x="0"
     inkscape:window-y="0"
     inkscape:window-maximized="1"
     showguides="true"
     inkscape:guide-bbox="true">
    <inkscape:grid
       type="xygrid"
       id="grid2985"
       empspacing="5"
       visible="true"
       enabled="true"
       snapvisiblegridlinesonly="true" />
  </sodipodi:namedview>
  <metadata
     id="metadata7">
    <rdf:RDF>
      <cc:Work
         rdf:about="">
        <dc:format>image/svg+xml</dc:format>
        <dc:type
           rdf:resource="http://purl.org/dc/dcmitype/StillImage" />
        <dc:title />
      </cc:Work>
    </rdf:RDF>
  </metadata>
  <g
     inkscape:label="Layer 1"
     inkscape:groupmode="layer"
     id="layer1"
     transform="translate(0,-988.3622)">
    <rect
       style="fill:replacecolour2;fill-opacity:1;stroke:none"
       id="rect3757"
       width="52"
       height="20"
       x="6"
       y="1000.3622" />
    <path
       style="fill:replacecolour2;fill-opacity:1;stroke:none"
       d="m 12,1000.3622 c 0,-2 0,-4 2.909091,-4 l 10.181819,0 c 2.90909,0 2.90909,2 2.90909,4 l 0,2 -16,0 z"
       id="path3759"
       inkscape:connector-curvature="0"
       sodipodi:nodetypes="ccccccc" />
    <path
       style="fill:#95989f;fill-opacity:1;stroke:none"
       d="m 10,1004.3622 44,0 0,9.9354 -44,0 z"
       id="path3765"
       inkscape:connector-curvature="0" />
    <rect
       y="1002.3622"
       x="14"
       height="25.999954"
       width="38"
       id="rect3763"
       style="fill:#d8d8da;fill-opacity:1;stroke:none" />
    <rect
       style="fill:#f9f9f9;fill-opacity:1;stroke:none"
       id="rect3761"
       width="38"
       height="25.999954"
       x="12"
       y="1006.3622" />
    <path
       style="fill:replacecolour1;fill-opacity:1;stroke:none"
       d="m 2,1008.3622 60,0 -4.285714,36 -51.428572,0 z"
       id="path2987"
       inkscape:connector-curvature="0"
       sodipodi:nodetypes="ccccc" />
    <path
       style="opacity:1.0;fill:replacecolour3;fill-opacity:1;stroke:none"
       d="M 28 26 C 25.784 26 24 27.74742 24 29.90625 L 24 30.09375 C 24 30.245277 24.04539 30.384325 24.0625 30.53125 C 24.027657 30.682526 24 30.837263 24 31 L 24 42 C 21.790861 42 20 43.790861 20 46 C 20 48.209139 21.790861 50 24 50 C 26.0495 50 27.704028 48.455517 27.9375 46.46875 C 27.955685 46.313998 28 46.159639 28 46 L 28 34 L 40 34 L 40 42 C 37.790861 42 36 43.790861 36 46 C 36 48.209139 37.790861 50 40 50 C 42.209139 50 44 48.209139 44 46 L 44 30.09375 L 44 30 C 44 29.968226 44.001451 29.937652 44 29.90625 C 44 27.74742 42.216 26 40 26 L 28 26 z "
       transform="translate(0,988.3622)"
       id="path3001" />
  </g>
</svg>

<!-- Created with Inkscape (http://www.inkscape.org/) -->
<svg xmlns="http://www.w3.org/2000/svg" viewBox="0 0 64 64">
 <g transform="translate(0,-988.3622)">
  <rect width="52" height="20" x="6" y="1000.36" style="fill:replacecolour2;fill-opacity:1;stroke:none"/>
  <path d="m 12 1000.36 c 0 -2 0 -4 2.909 -4 l 10.182 0 c 2.909 0 2.909 2 2.909 4 l 0 2 -16 0 z" style="fill:replacecolour2;fill-opacity:1;stroke:none"/>
  <path d="m 10 1004.36 44 0 0 9.935 -44 0 z" style="fill:#95989f;fill-opacity:1;stroke:none"/>
  <rect y="1002.36" x="14" height="26" width="38" style="fill:#d8d8da;fill-opacity:1;stroke:none"/>
  <rect width="38" height="26" x="12" y="1006.36" style="fill:#f9f9f9;fill-opacity:1;stroke:none"/>
  <path d="m 2 1008.36 60 0 -4.286 36 -51.43 0 z" style="fill:replacecolour1;fill-opacity:1;stroke:none"/>
  <path d="m 28 26 c -2.216 0 -4 1.747 -4 3.906 l 0 0.188 c 0 0.152 0.045 0.291 0.063 0.438 c -0.035 0.151 -0.063 0.306 -0.063 0.469 l 0 11 c -2.209 0 -4 1.791 -4 4 c 0 2.209 1.791 4 4 4 c 2.049 0 3.704 -1.544 3.938 -3.531 c 0.018 -0.155 0.063 -0.309 0.063 -0.469 l 0 -12 l 12 0 l 0 8 c -2.209 0 -4 1.791 -4 4 c 0 2.209 1.791 4 4 4 c 2.209 0 4 -1.791 4 -4 l 0 -15.906 l 0 -0.094 c 0 -0.032 0.001 -0.062 0 -0.094 c 0 -2.159 -1.784 -3.906 -4 -3.906 l -12 0 z" transform="translate(0,988.3622)" style="fill:replacecolour3;opacity:1;fill-opacity:1;stroke:none"/>
 </g>
</svg>
